src/icons/svgs/24/smile-rotate-right.svg

<svg width="24" height="24" viewBox="0 0 24 24" fill="none" xmlns="http://www.w3.org/2000/svg">
<path fill-rule="evenodd" clip-rule="evenodd" d="M8.24728 12.0075C8.93816 12.0075 9.49822 11.4475 9.49822 10.7566C9.49822 10.0657 8.93816 9.50565 8.24728 9.50565C7.5564 9.50565 6.99634 10.0657 6.99634 10.7566C6.99634 11.4475 7.5564 12.0075 8.24728 12.0075ZM15.7529 12.0075C16.4438 12.0075 17.0039 11.4475 17.0039 10.7566C17.0039 10.0657 16.4438 9.50565 15.7529 9.50565C15.0621 9.50565 14.502 10.0657 14.502 10.7566C14.502 11.4475 15.0621 12.0075 15.7529 12.0075ZM8.66419 14.3434C8.1119 14.3434 7.66419 14.7911 7.66419 15.3434C7.66419 15.8956 8.1119 16.3434 8.66419 16.3434H15.3359C15.8882 16.3434 16.3359 15.8956 16.3359 15.3434C16.3359 14.7911 15.8882 14.3434 15.3359 14.3434H8.66419Z" fill="black"/>
<path d="M12 3.93621C13.8082 3.93621 15.5209 4.52267 16.9364 5.59002L15.2358 7.16735C14.9266 7.45412 15.0895 7.9713 15.5072 8.02919L20.7551 8.75661C21.0729 8.80066 21.3493 8.53825 21.3219 8.21859L20.8759 3.02222C20.8403 2.60702 20.3422 2.41506 20.0371 2.69895L18.2791 4.335C16.5064 2.90946 14.3136 2.13173 12 2.13173C6.48636 2.13173 2 6.58429 2 12.0564C2 12.337 2.01909 12.6131 2.04273 12.8883L3.84636 12.6086C3.84445 12.581 3.84247 12.5535 3.8405 12.526C3.82934 12.3705 3.81818 12.2151 3.81818 12.0564C3.81818 7.57856 7.48818 3.93621 12 3.93621Z" fill="black"/>
<path d="M20.177 12.0641C20.185 11.5621 20.5888 11.1541 21.0909 11.1541V11.1541C21.593 11.1541 22.0026 11.5618 21.9946 12.0638C21.9749 13.2978 21.888 13.8534 21.5337 15.0272C21.3892 15.506 20.878 15.7696 20.4009 15.6196V15.6196C19.921 15.4686 19.6587 14.9565 19.8037 14.4747C20.0923 13.5159 20.161 13.0704 20.177 12.0641Z" fill="black"/>
<path d="M6.06029 17.6425C6.39949 18.0136 6.38366 18.5886 6.0155 18.931V18.931C5.65111 19.2698 5.07942 19.2527 4.74339 18.8857C3.93862 18.0068 3.63334 17.5669 3.09905 16.5158C2.87096 16.0671 3.06257 15.5201 3.5161 15.3017V15.3017C3.96583 15.0851 4.50356 15.2745 4.72975 15.7195C5.16669 16.5791 5.40967 16.9307 6.06029 17.6425Z" fill="black"/>
<path d="M11.8013 20.1693C12.2993 20.1895 12.6936 20.6003 12.6813 21.0985V21.0985C12.669 21.5964 12.2543 21.9926 11.7566 21.9725C10.4112 21.9182 9.80554 21.8053 8.55363 21.3761C8.08012 21.2137 7.83759 20.6903 8.01018 20.2205V20.2205C8.18152 19.754 8.69699 19.5167 9.16699 19.678C10.2029 20.0337 10.683 20.124 11.8013 20.1693Z" fill="black"/>
<path d="M19.1248 18.9955C19.484 18.6437 19.4769 18.064 19.1163 17.7136V17.7136C18.7595 17.367 18.1919 17.3754 17.8367 17.7236C17.0325 18.5122 16.624 18.8076 15.6288 19.3219C15.1832 19.5521 14.9992 20.0956 15.2249 20.5435V20.5435C15.4485 20.987 15.9902 21.1687 16.4315 20.9406C17.6466 20.3127 18.1579 19.9424 19.1248 18.9955Z" fill="black"/>
</svg>

<svg width="24" height="24" viewBox="0 0 24 24" xmlns="http://www.w3.org/2000/svg">
    <path fill-rule="evenodd" clip-rule="evenodd" d="M8.247 12.008a1.25 1.25 0 1 0 0-2.502 1.25 1.25 0 0 0 0 2.502zm7.506 0a1.25 1.25 0 1 0 0-2.502 1.25 1.25 0 0 0 0 2.502zm-7.089 2.335a1 1 0 1 0 0 2h6.672a1 1 0 0 0 0-2H8.664z"/>
    <path d="M12 3.936a8.16 8.16 0 0 1 4.936 1.654l-1.7 1.577a.5.5 0 0 0 .271.862l5.248.728a.5.5 0 0 0 .567-.538l-.446-5.197a.5.5 0 0 0-.839-.323L18.28 4.335A9.97 9.97 0 0 0 12 2.132c-5.514 0-10 4.452-10 9.924 0 .281.02.557.043.832l1.803-.28-.006-.082c-.01-.155-.022-.31-.022-.47 0-4.477 3.67-8.12 8.182-8.12zm8.177 8.128a.92.92 0 0 1 .914-.91.9.9 0 0 1 .904.91c-.02 1.234-.107 1.79-.461 2.963a.9.9 0 0 1-1.133.593.919.919 0 0 1-.597-1.145c.288-.96.357-1.405.373-2.41zM6.06 17.642a.915.915 0 0 1-.044 1.289.897.897 0 0 1-1.273-.045c-.804-.88-1.11-1.32-1.644-2.37a.898.898 0 0 1 .417-1.214.917.917 0 0 1 1.214.418c.437.86.68 1.21 1.33 1.922zm5.741 2.528a.91.91 0 0 1 .88.928.893.893 0 0 1-.924.875c-1.346-.055-1.951-.168-3.203-.597a.894.894 0 0 1-.544-1.155.913.913 0 0 1 1.157-.543c1.036.356 1.516.446 2.634.491zm7.324-1.175a.896.896 0 0 0-.009-1.281.916.916 0 0 0-1.28.01c-.803.788-1.212 1.084-2.207 1.598a.914.914 0 0 0-.404 1.222.894.894 0 0 0 1.207.397c1.215-.628 1.726-.999 2.693-1.945z"/>
</svg>
